X:776
T:Xiraldilla (CT 109)
R:Xiraldilla
C:Tradicional
S:Msica Tradicional Asturiana, (C) Tello & Tito. Asturies, 2001.
S:http://pagina.de/MusTradAst <telloytito@asturies.org>
N:Xiraldilla, variante de la nmero CT 108, dictada por Rosala Osorio, de veinticinco aos, de El Pino, ayuntamiento de Ayer.
A:Asturies
O:El Pino (Ayer)
Z:Cancioneru de Torner 109
M:2/4
L:1/8
Q:1/4=152
K:Gm
GB|d3 e|(fe) dc|d2 GB|d3 e|(fe) dc|d2 de|
de de|dc c=B|c2 cd|cd cd|cB BA|B2 AB|d3 B|c3 B|A2 G2-|G2 ||
W:Mi abuelo tena un huerto, (bis)
W:que criba muchos nabos, tralar, (tres)
W:
